X: 30411
M: 2/4
L: 1/16
K: D
z2 |\
|: e2 |\
fedc BcdB | A2d2 d3F | GFGA BAGF | E2e2 e3f |\
gfed dcBA | BcdB BAGF | G2B2 AGFE | D2d2d2 :|


